X:1
T:Title
L:1/8
Q:1/4=120
M:4/4
K:C
V:1 treble nm="Church Organ, Staff"
V:1
 z2 c2 A2 B2 | G8 | G2 c2 A2 B2 | G8 | G2 G2 A2 B2 | c8 | c2 G2 A2 B2 | c8 | B4 c4 | d4 A4 | %10
 c4 B4 | c8 | BBBc- c/ z/ B A2 | ^G2 A2- A/ z/ =G FG | BAEG- G3/2 z/ F2- | FBBB cBcd- | %16
 d_e =e2 c B2 B | dcBA- A2 D2- | D G3 z4 |] %19

